img/contracts__img-pdf.svg

<svg width="39" height="39" viewBox="0 0 39 39" fill="none" xmlns="http://www.w3.org/2000/svg">
<g opacity="0.8">
<path d="M25.7574 0H5.54566C4.98295 0 4.52679 0.456161 4.52679 1.34132V38.3036C4.52679 38.5438 4.98295 39 5.54566 39H33.4543C34.0171 39 34.4732 38.5438 34.4732 38.3036V9.03825C34.4732 8.55354 34.4085 8.39754 34.2942 8.28263L26.1906 0.178982C26.0757 0.0647679 25.9197 0 25.7574 0Z" fill="#E9E9E0"/>
<path d="M26.1161 0.105225V8.35721H34.3681L26.1161 0.105225Z" fill="#D9D7CA"/>
<path d="M13.5901 23.2079C13.3478 23.2079 13.1152 23.1292 12.9167 22.9809C12.1917 22.4369 12.0942 21.8317 12.1402 21.4195C12.2669 20.2857 13.6688 19.099 16.3083 17.89C17.3557 15.5945 18.3523 12.7663 18.9464 10.4034C18.2513 8.89071 17.5758 6.92818 18.0682 5.77698C18.2409 5.37375 18.4561 5.06454 18.8579 4.93082C19.0167 4.87789 19.4178 4.81104 19.5655 4.81104C19.9165 4.81104 20.225 5.26302 20.4437 5.54159C20.6491 5.80345 21.115 6.3585 20.1839 10.2787C21.1227 12.2176 22.4529 14.1926 23.7273 15.5451C24.6404 15.38 25.4259 15.2958 26.0659 15.2958C27.1566 15.2958 27.8175 15.55 28.087 16.0737C28.3098 16.5069 28.2186 17.0132 27.8154 17.578C27.4275 18.1205 26.8926 18.4074 26.2693 18.4074C25.4224 18.4074 24.4363 17.8726 23.3366 16.8161C21.3609 17.2291 19.0536 17.9659 17.1886 18.7814C16.6064 20.0169 16.0485 21.0121 15.529 21.7419C14.8151 22.7413 14.1995 23.2079 13.5901 23.2079ZM15.444 19.638C13.9558 20.4744 13.3492 21.1618 13.3053 21.549C13.2983 21.6131 13.2795 21.7816 13.6054 22.0309C13.7092 21.9982 14.3151 21.7217 15.444 19.638ZM24.9412 16.5445C25.5088 16.9811 25.6474 17.2019 26.0186 17.2019C26.1816 17.2019 26.6461 17.1949 26.8613 16.8948C26.965 16.7492 27.0054 16.6559 27.0214 16.6058C26.9358 16.5605 26.8223 16.4686 26.2031 16.4686C25.8514 16.4692 25.4092 16.4846 24.9412 16.5445ZM19.7389 11.9606C19.2409 13.6835 18.5835 15.5437 17.8766 17.2284C19.3322 16.6636 20.9145 16.1705 22.4006 15.8216C21.4605 14.7296 20.521 13.366 19.7389 11.9606ZM19.3162 6.06739C19.2479 6.09037 18.3899 7.29102 19.383 8.30711C20.0439 6.83416 19.3461 6.05764 19.3162 6.06739Z" fill="#B8B8B8"/>
<path d="M33.4543 38.9999H5.54566C4.98295 38.9999 4.52679 38.5438 4.52679 37.9811V27.1606H34.4732V37.9811C34.4732 38.5438 34.0171 38.9999 33.4543 38.9999Z" fill="#B8B8B8"/>
<path d="M12.1074 36.9108H10.9646V29.8936H12.9828C13.2809 29.8936 13.5762 29.9409 13.868 30.0363C14.1598 30.1317 14.4216 30.2745 14.6535 30.4646C14.8855 30.6548 15.0728 30.8853 15.2156 31.1548C15.3583 31.4243 15.4301 31.7273 15.4301 32.0643C15.4301 32.4202 15.3695 32.7419 15.249 33.031C15.1285 33.32 14.96 33.563 14.7441 33.7594C14.5282 33.9558 14.2677 34.1083 13.9634 34.2163C13.659 34.3242 13.322 34.3779 12.9543 34.3779H12.1067V36.9108H12.1074ZM12.1074 30.7599V33.5401H13.1548C13.2941 33.5401 13.432 33.5164 13.5692 33.4683C13.7057 33.421 13.8311 33.343 13.9453 33.235C14.0595 33.1271 14.1514 32.9766 14.2211 32.783C14.2907 32.5894 14.3255 32.3499 14.3255 32.0643C14.3255 31.9501 14.3095 31.8178 14.2782 31.6694C14.2461 31.5204 14.1814 31.3776 14.0832 31.2411C13.9843 31.1046 13.8464 30.9904 13.6688 30.8985C13.4912 30.8066 13.2558 30.7606 12.964 30.7606H12.1074V30.7599Z" fill="white"/>
<path d="M22.4382 33.2072C22.4382 33.7845 22.3762 34.2783 22.2523 34.6878C22.1283 35.0973 21.9716 35.4399 21.7808 35.7164C21.59 35.9929 21.3762 36.2102 21.138 36.3689C20.8998 36.5277 20.67 36.6461 20.4478 36.7262C20.2257 36.8056 20.0223 36.8564 19.8384 36.8787C19.6546 36.8996 19.5181 36.9108 19.4289 36.9108H16.7728V29.8936H18.8864C19.477 29.8936 19.9958 29.9876 20.4429 30.1742C20.89 30.3609 21.2619 30.6109 21.5572 30.9215C21.8525 31.2321 22.0726 31.5866 22.2188 31.9828C22.3651 32.3798 22.4382 32.7879 22.4382 33.2072ZM19.0487 36.073C19.8231 36.073 20.3817 35.8257 20.7243 35.3306C21.0669 34.8354 21.2383 34.1181 21.2383 33.1786C21.2383 32.8868 21.2034 32.5978 21.1338 32.3122C21.0635 32.0267 20.929 31.7683 20.7292 31.5364C20.5293 31.3045 20.2577 31.1172 19.915 30.9744C19.5724 30.8316 19.1281 30.7599 18.5821 30.7599H17.9156V36.073H19.0487Z" fill="white"/>
<path d="M25.2567 30.7599V32.969H28.1893V33.7497H25.2567V36.9108H24.095V29.8936H28.4839V30.7599H25.2567Z" fill="white"/>
</g>
</svg>

<svg width="39" height="39" viewBox="0 0 39 39" fill="none" xmlns="http://www.w3.org/2000/svg"><g opacity=".8"><path d="M25.757 0H5.546c-.563 0-1.02.456-1.02 1.341v36.963c0 .24.457.696 1.02.696h27.908c.563 0 1.02-.456 1.02-.696V9.038c0-.484-.066-.64-.18-.755L26.191.179A.615.615 0 0025.757 0z" fill="#E9E9E0"/><path d="M26.116.105v8.252h8.252L26.116.105z" fill="#D9D7CA"/><path d="M13.59 23.208c-.242 0-.475-.079-.673-.227-.725-.544-.823-1.15-.777-1.562.127-1.133 1.529-2.32 4.168-3.529 1.048-2.296 2.044-5.124 2.638-7.487-.695-1.512-1.37-3.475-.878-4.626.173-.403.388-.712.79-.846.159-.053.56-.12.707-.12.351 0 .66.452.879.73.205.262.671.817-.26 4.738.939 1.939 2.269 3.914 3.543 5.266.913-.165 1.699-.25 2.339-.25 1.09 0 1.752.255 2.021.779.223.433.132.94-.272 1.504-.388.543-.922.83-1.546.83-.847 0-1.833-.535-2.932-1.592a33.372 33.372 0 00-6.148 1.965c-.583 1.236-1.14 2.231-1.66 2.96-.714 1-1.33 1.467-1.939 1.467zm1.854-3.57c-1.488.836-2.095 1.524-2.139 1.911-.007.064-.025.233.3.482.104-.033.71-.31 1.839-2.393zm9.497-3.094c.568.437.706.658 1.078.658.163 0 .627-.007.842-.307a1.1 1.1 0 00.16-.29c-.085-.044-.199-.136-.818-.136-.352 0-.794.016-1.262.075zm-5.202-4.583a49.664 49.664 0 01-1.862 5.267 34.803 34.803 0 014.524-1.406c-.94-1.092-1.88-2.456-2.662-3.861zm-.423-5.894c-.068.023-.926 1.224.067 2.24.66-1.473-.037-2.25-.067-2.24zM33.454 39H5.546a1.019 1.019 0 01-1.02-1.019v-10.82h29.947v10.82c0 .563-.456 1.019-1.019 1.019z" fill="#B8B8B8"/><path d="M12.107 36.91h-1.142v-7.016h2.018c.298 0 .593.047.885.142.292.096.554.238.785.429.232.19.42.42.563.69.142.27.214.572.214.91 0 .355-.06.677-.181.966a2.02 2.02 0 01-.505.728 2.276 2.276 0 01-.78.457 3.006 3.006 0 01-1.01.162h-.847v2.533zm0-6.15v2.78h1.048c.14 0 .277-.024.414-.072.137-.047.262-.125.376-.233.114-.108.206-.258.276-.452a2.142 2.142 0 00.057-1.114 1.141 1.141 0 00-.195-.428 1.154 1.154 0 00-.414-.343c-.178-.091-.413-.137-.705-.137h-.857v-.001zm10.331 2.447c0 .578-.062 1.071-.186 1.48-.124.41-.28.753-.471 1.03a2.42 2.42 0 01-.643.652 3.224 3.224 0 01-.69.357 2.85 2.85 0 01-.61.153 4.31 4.31 0 01-.41.032h-2.655v-7.017h2.113c.591 0 1.11.094 1.557.28a3.23 3.23 0 011.114.748c.296.31.516.665.662 1.06.146.398.22.806.22 1.225zm-3.39 2.866c.775 0 1.334-.247 1.676-.742.343-.496.514-1.213.514-2.152 0-.292-.035-.581-.104-.867a1.854 1.854 0 00-.405-.776 2.135 2.135 0 00-.814-.562c-.343-.142-.787-.214-1.333-.214h-.666v5.313h1.133zm6.209-5.313v2.209h2.932v.78h-2.932v3.162h-1.162v-7.017h4.389v.866h-3.227z" fill="#fff"/></g></svg>
